X: 1
T: Gasp\'e Reel
C: trad. Qu\'ebec
R: reel
S: Fiddle Hell Online 2022-4-1 handout for Contra Dance Piano workshop [Sue Songer]
Z: 2022 John Chambers <jc:trillian.mit.edu>
M: C|
L: 1/8
K: D
|:\
"D"f2ef e2d2 | AFAc B2A2 | "A"g2fg f2e2 | BABc B2A2 |
"D"f2ef e2d2 | AFAc B2A2 | "Em"g2fg f2e2 | "A"B2c2 "D"d4 :|
|:\
"A"e2f2 g2e2 | "D"f2g2 a4 | "A"e2f2 g2e2 | BABc B2A2 |
"A"e2f2 g2e2 | "D"f2g2 a4 | "Em"b3a gfe2 | "A"B2c2 "D"d4 :|
_
